icons/op-phone-16.svg

<svg width="16" height="16" viewBox="0 0 16 16" fill="none" xmlns="http://www.w3.org/2000/svg">
<path fill-rule="evenodd" clip-rule="evenodd" d="M5.422 10.5787C8.1175 13.2742 10.6153 13.5693 11.3486 13.5966C12.2347 13.6289 13.1391 12.9054 13.5302 12.1644C12.9063 11.4325 12.0938 10.8647 11.2035 10.2492C10.6791 10.7735 10.0327 11.748 9.17047 11.3989C8.68044 11.2019 7.47044 10.6445 6.41327 9.58668C5.3554 8.52951 4.79877 7.31951 4.60038 6.83018C4.25126 5.9672 5.22851 5.31874 5.75359 4.79366C5.13808 3.88931 4.58005 3.05577 3.84956 2.46339C3.09804 2.85598 2.37036 3.75331 2.40331 4.65134C2.43065 5.38463 2.72579 7.88244 5.422 10.5787ZM11.2967 14.9973C10.2872 14.9602 7.42628 14.5655 4.43002 11.5692C1.43447 8.57367 1.03979 5.71342 1.00193 4.70322C0.945847 3.16373 2.125 1.66841 3.48712 1.08444C3.65115 1.01362 3.83077 0.986649 4.00837 1.00619C4.18596 1.02573 4.35543 1.09111 4.50013 1.19591C5.6274 2.01823 6.40486 3.26398 7.07295 4.23983C7.21193 4.44275 7.2756 4.68787 7.25294 4.93277C7.23028 5.17768 7.12272 5.40695 6.94887 5.58092L5.99825 6.53224C6.21908 7.01946 6.66845 7.85931 7.40454 8.5954C8.14064 9.3315 8.98048 9.78086 9.46841 10.0017L10.4183 9.05108C10.593 8.87686 10.8232 8.76944 11.0689 8.74754C11.3146 8.72563 11.5602 8.79063 11.7629 8.9312C12.7584 9.62103 13.9277 10.3873 14.7802 11.4788C14.8935 11.6245 14.9656 11.798 14.9889 11.9812C15.0122 12.1643 14.9859 12.3504 14.9127 12.5198C14.3259 13.889 12.8411 15.0541 11.2967 14.9973Z" fill="black"/>
</svg>

<svg xmlns="http://www.w3.org/2000/svg" width="16" height="16" viewBox="0 0 16 16"><path d="M11.297 14.997c-1.01-.037-3.871-.431-6.867-3.428-2.996-2.995-3.39-5.856-3.428-6.866-.056-1.539 1.123-3.035 2.485-3.619a1.034 1.034 0 0 1 1.013.112c1.127.822 1.905 2.068 2.573 3.044a1.052 1.052 0 0 1-.124 1.341l-.951.951c.221.487.67 1.327 1.407 2.063.736.737 1.575 1.186 2.063 1.407l.95-.951a1.056 1.056 0 0 1 1.345-.12c.995.69 2.165 1.456 3.017 2.548a1.022 1.022 0 0 1 .133 1.041c-.587 1.369-2.072 2.534-3.616 2.477Zm-5.875-4.418c2.696 2.695 5.193 2.99 5.927 3.018.886.032 1.79-.692 2.181-1.433-.624-.732-1.436-1.299-2.327-1.915-.088.088-.179.189-.275.295-.473.52-1.04 1.145-1.758.855-.49-.197-1.7-.755-2.757-1.812C5.355 8.53 4.799 7.32 4.6 6.83c-.29-.718.337-1.287.858-1.76.106-.096.207-.188.296-.276-.616-.905-1.174-1.738-1.904-2.331-.752.393-1.48 1.29-1.447 2.188.028.734.323 3.231 3.019 5.928Z"/></svg>
